Bloom-Colors/scalable/status/orientation-portrait-inverse-symbolic.svg

<svg width="16" height="16" version="1.1" xmlns="http://www.w3.org/2000/svg">
<path d="m13 14s0 1-1 1h-8s-1 0-1-1v-12s0-1 1-1h8s1 0 1 1zm-3-2v-8l-4 4z" fill="#666"/>
</svg>

<svg xmlns="http://www.w3.org/2000/svg" width="16" height="16" version="1.1">
 <path style="fill:#444444" d="M 13,14 C 13,14 13,15 12,15 H 4 C 4,15 3,15 3,14 V 2 C 3,2 3,1 4,1 H 12 C 12,1 13,1 13,2 Z M 10,12 V 4 L 6,8 Z"/>
</svg>
